X:1
T:Mackenzie Highlanders' March
M:C|
L:1/8
Q:80
C:
S:2/4 March
K:HP
|: {g}e/2d/2 | \
{gcd}c{g}B3/4{d}c/4{g}A3/4B/4{GdG}c3/4d/4 | \
{gef}e{g}A{GAG}A{ag}a |
{cd}c{e}B3/4{d}c/4{g}A3/4B/4{GdG}c3/4d/4 | \
{g}e2{GdG}e{ag}a{cd}c{e}B/4{d}c3/4{g}A3/4B/4{GdG}c3/4d/4 | \
{gef}e{g}A{GAG}A{gf}g |
{Bd}B{g}A/4{d}G3/4{gf}gB/4{d}G3/4 | \
{dc}d2{gdc}d :: \
{gf}g |
{ag}ac/4{d}A3/4{g}e{g}f3/4d/4 | \
{gef}e{g}A{GAG}A{gf}g | \
{ag}ac/4{d}A3/4{g}e{g}f3/4d/4 |
{g}e2{GdG}e3/2{gf}g/2|1 {ag}ac/4{d}A3/4{g}e{g}f3/4d/4 | \
{gef}e{g}A{GAG}A{gf}g | \
{Bd}B{g}A/4{d}G3/4{gf}gB/4{d}G3/4 |
{dc}d2{gdc}d:|2
{ag}ag/4f3/4{gf}gf/4e3/4 | \
{fg}fe/4d3/4{g}e{gf}g |
{Bd}B{g}A/4{d}G3/4{gf}gB/4{d}G3/4 | \
{dc}d2{gdc}d :|
